X:1
T:Botany Bay
M:3/4
L:1/4
K:D
 A/2A/2| F A A| E A A| F/2E/2 D2-| D2 A| d d d| e- d B| A3-| A2 A|\
 d d d| e d B| A/2F/2 D2-| D2 E/2E/2| F A A| E G F| D3-| D2 A/2A/2|\
 F A A| E A A| F/2E/2 D2-| D3| d d d| e d B| A3-| A3| d d d| e d B|\
 A/2F/2 D2-| D3| F A A| E G F| D3-| D2||
